X:1
T: Sir Henry Daniel of Gooch
P: for The Dream Catcher (Bk 45)
C:Eric Allen
R:Strathspey
Q: 128
K:D
M:4/4
L:1/16
D2E2|:F4 E2D2 A4 F4|D6 D2 d4 c2A2|B4 A2G2 d4 F4|A8 A2B2 A2G2|
F4 E2D2 A4 c4|d4 c2d2 B4 A2G2|F2E2 F2A2 G2F2 E2D2|E2F2 G2A2 B4 A4|
A4 f4 e4 f4|d6 F2 c6 d2|B4 A2G2 A4 D4|G2F2 G2A2 E4 F2G2|
A4 f4 e4 c4|d4 D4 c2B2 A2G2|1F4 D4 G2F2 E2D2|E2F2 G2A2 B4 A4:|2F4 D4 G2F2 E2F2|D8 D4||
